!!!!SEGMENT: Any2014-O_Domine_Jesu_Christe--Newberry_Partbooks.krn
!!!id: Any2014
!!!AGN: Motet
!!!voices: 4
!!!COM: Anonymous
!!!OTL: O Domine Jesu Christe (Newberry Partbooks)
**kern	**kern	**kern	**kern
*part4	*part3	*part2	*part1
*staff4	*staff3	*staff2	*staff1
*I"Bassus	*I"Tenor	*I"Altus	*I"Superius
*I'B	*I'T	*I'A	*I'S
*clefF4	*clefGv2	*clefG2	*clefG2
*k[]	*k[]	*k[]	*k[]
*C:	*C:	*C:	*C:
*M2/1	*M2/1	*M2/1	*M2/1
*met(C|)	*met(C|)	*met(C|)	*met(C|)
!!section: Prima pars: O Domine Jesu Christe
!!!OMD: Prima pars: O Domine Jesu Christe
0E	0r	1r	0r
.	.	[1e	.
=1	=1	=1	=1
1E	0r	1e]	0r
1C	.	1e	.
=2	=2	=2	=2
1.F	0r	1c	1r
.	.	[1f	[1a
2E	.	.	.
=3	=3	=3	=3
2D	0r	2f]	1a]
2C	.	2e	.
1D	.	2d	1a
.	.	2c	.
=4	=4	=4	=4
1E	0r	1B	1g
2AA	.	4A	[1cc
.	.	4B	.
[2A	.	4c	.
.	.	4d	.
=5	=5	=5	=5
4A]	1r	4e	2cc]
4G	.	4f	.
2E	.	2g	2b
2F	[1A	2f	2a
2C	.	[2e	2g
=6	=6	=6	=6
1D	1A]	2e]	1f
.	.	2d	.
1AA	1A	[1e	2e
.	.	.	[2cc
=7	=7	=7	=7
1E	1G	0e_	2cc]
.	.	.	1b
1r	[1c	.	.
.	.	.	[2a
=8	=8	=8	=8
1E	2c]	1e]	2a]
.	2B	.	2g
2F	2A	2c	2a
2E	2G	[2e	[2cc
=9	=9	=9	=9
1F	1A	2e]	2cc]
.	.	2d	4b
.	.	.	4a
1E	1B	1e	1g
=10	=10	=10	=10
0C	0c	0e	0g
=11	=11	=11	=11
0G	1B	1d	0g
.	[1d	1B	.
=12	=12	=12	=12
0A	2d]	0c	1e
.	2c	.	.
.	[1c	.	1f
=13	=13	=13	=13
0G	2c]	0d	0g
.	4B	.	.
.	4A	.	.
.	1B	.	.
=14	=14	=14	=14
0C;	0c;	0e;	0g;
=15	=15	=15	=15
0r	0r	1r	0g
.	.	[1c	.
=16	=16	=16	=16
0r	0r	1c]	1a
.	.	1d	1b
=17	=17	=17	=17
0r	0r	1e	0cc
.	.	[1f	.
=18	=18	=18	=18
0r	0r	1f]	2r
.	.	.	1cc
.	.	1r	.
.	.	.	2cc
=19	=19	=19	=19
0r	0r	1.f	1cc
.	.	.	1a
.	.	2f	.
=20	=20	=20	=20
0r	0r	1f	1.cc
.	.	1e	.
.	.	.	2b
=21	=21	=21	=21
0r	0r	1.f	2a
.	.	.	1dd
.	.	2e	[2cc
=22	=22	=22	=22
1r	0G	2d	2cc]
.	.	2d	2b
[1C	.	[1c	1cc
=23	=23	=23	=23
1C]	1A	1c]	0r
1D	1B	1r	.
=24	=24	=24	=24
1E	0c	0r	0r
[1F	.	.	.
=25	=25	=25	=25
1F]	2r	0r	0r
.	1c	.	.
1r	.	.	.
.	2c	.	.
=26	=26	=26	=26
1.F	1c	0r	0r
.	1A	.	.
2F	.	.	.
=27	=27	=27	=27
1F	1.c	0r	0r
1E	.	.	.
.	2B	.	.
=28	=28	=28	=28
1.F	2A	0r	0r
.	1d	.	.
2E	[2c	.	.
=29	=29	=29	=29
2D	2c]	1r	0r
2D	2B	.	.
1C	1c	2r	.
.	.	2e	.
=30	=30	=30	=30
1G	0r	1.e	1b
1A	.	.	[1cc
.	.	2e	.
=31	=31	=31	=31
1G	2r	2d	2cc]
.	2d	2d	2b
2r	[1f	1c	2a
2A	.	.	[2cc
=32	=32	=32	=32
1.c	2f]	1g	4cc]
.	.	.	4b
.	2e	.	4a
.	.	.	4g
.	2d	1r	2a
2B	2d	.	[2g
=33	=33	=33	=33
2A	1c	2r	2g]
2A	.	1c	2f#i
1G	1r	.	1g
.	.	2B	.
=34	=34	=34	=34
2r	1r	2c	0g
1G	.	2d	.
.	2r	2e	.
2E	[2c	2e	.
=35	=35	=35	=35
2F	2c]	1d	0r
2G	2B	.	.
2A	2.c	1r	.
2A	.	.	.
.	4d	.	.
=36	=36	=36	=36
1.G	2e	0r	1r
.	2e	.	.
.	1d	.	2r
2G	.	.	[2g
=37	=37	=37	=37
2.c	0r	2r	2g]
.	.	1c	2e
4B	.	.	.
2A	.	.	2f
2G	.	2B	2g
=38	=38	=38	=38
2.F	2r	2c	2a
.	2A	2d	2a
4E	.	.	.
1C	2c	2e	[1g
.	2c	2e	.
=39	=39	=39	=39
1G	2B	1d	1g]
.	2.G	.	.
2r	.	2.G	[1b
.	4A	.	.
[2G	4B	.	.
.	4c	4A	.
=40	=40	=40	=40
2G]	2.d	4B	2b]
.	.	4c	.
2G	.	1d	2b
.	4c	.	.
2G	2B	.	1b
2E	2G	2e	.
=41	=41	=41	=41
2F	2A	2c	1a
2.A	2.c	2.f	.
.	.	.	[1cc
4G	4B	4e	.
4F	4A	[2e	.
4E	4G	.	.
=42	=42	=42	=42
1F	1A	2e]	2cc]
.	.	2d	4b
.	.	.	4a
1E	1G	2e	2cc
.	.	[2g	[2b
=43	=43	=43	=43
2r	2.E	4g]	4b]
.	.	4f	4a
1E	.	4e	4g
.	4F	4d	4f
.	4G	2c	2e
.	4E	.	.
2D	2A	2d	[2f
=44	=44	=44	=44
2E	2G	2B	4f]
.	.	.	4e
2C	2E	2c	2e
1D	2F	2A	4d
.	.	.	4e
.	2D	[2d	4f
.	.	.	4g
=45	=45	=45	=45
2.AA	2E	4d]	4a
.	.	4c	4b
.	2.A	2c	2.cc
4BB	.	.	.
4C	.	1e	.
4D	4G	.	4b
2E	2G	.	[2b
=46	=46	=46	=46
2F	2.A	2c	4b]
.	.	.	4a
2D	.	2f	2a
.	4B	.	.
2.E	4c	2e	2g
.	4B	.	.
.	2e	[2g	2cc
4F	.	.	.
=47	=47	=47	=47
2G	2d	4g]	2b
.	.	4f	.
2A	2c	4e	1a
.	.	4d	.
1E	1B	1e	.
.	.	.	2g#i
=48	=48	=48	=48
2AA	2A	2c	2a
1D	1A	1d	1f
2D	2A	2d	2f
=49	=49	=49	=49
4AA	1A	2c	0e
4BB	.	.	.
4C	.	4B	.
4D	.	4A	.
2E	1r	2G	.
[2C	.	[2c	.
=50	=50	=50	=50
4C]	2r	2c]	2r
4D	.	.	.
4E	1e	4B	1g
4F	.	4A	.
2G	.	1B	.
2G	2d	.	2g
=51	=51	=51	=51
2D	2f	0r	2a
2E	2e	.	2g
2F	2d	.	2a
2G	2d	.	2b
=52	=52	=52	=52
2C	1c	2r	2.cc
1F	.	1c	.
.	.	.	4b
.	1r	.	2a
2E	.	2c	2g
=53	=53	=53	=53
1D	0r	1.d	2.f
.	.	.	8eL
.	.	.	8dJ
1r	.	.	1e
.	.	2c#i	.
=54	=54	=54	=54
0r	0r	2d	2r
.	.	2e	1b
.	.	1f	.
.	.	.	2a
=55	=55	=55	=55
0r	0r	2r	1cc
.	.	1e	.
.	.	.	1b
.	.	2d	.
=56	=56	=56	=56
0r	0r	1f	2.a
.	.	.	4b
.	.	1e	2cc
.	.	.	[2b
=57	=57	=57	=57
0r	0r	2d	4b]
.	.	.	4a
.	.	2e	4g
.	.	.	4f
.	.	2.c	2e
.	.	.	[2a
.	.	8BL	.
.	.	8AJ	.
=58	=58	=58	=58
0r	0r	1B	2a]
.	.	.	2g#i
.	.	2r	1a
.	.	2A	.
=59	=59	=59	=59
0r	0r	2A	2r
.	.	2A	2e
.	.	4c	2e
.	.	4B	.
.	.	4c	2e
.	.	4d	.
=60	=60	=60	=60
0r	2r	2e	2g
.	2A	2c	2a
.	2G	2d	2b
.	2E	[2e	2b
=61	=61	=61	=61
0r	1A	4e]	1cc
.	.	4c	.
.	.	2.f	.
.	2.G	.	2b
.	.	4e	.
.	.	[2e	4a
.	8FL	.	4g
.	8EJ	.	.
=62	=62	=62	=62
1r	1F	2e]	1a
.	.	2d	.
2r	1E	2.e	2g
2E	.	.	[2b
.	.	4d	.
=63	=63	=63	=63
2F	1r	2c	2b]
2D	.	2d	1a
2.E	2r	1B	.
.	2B	.	2g#i
4D	.	.	.
=64	=64	=64	=64
2C	2c	1A	2.a
1D	2A	.	.
.	.	.	4g
.	2.B	1r	2f
[2E	.	.	2g
.	4A	.	.
=65	=65	=65	=65
4E]	2G	0r	1e
4D	.	.	.
4C	2.A	.	.
4BB	.	.	.
2AA	.	.	1r
.	4B	.	.
[2A	4c	.	.
.	4A	.	.
=66	=66	=66	=66
2A]	1B	0r	0r
2G	.	.	.
1F	2A	.	.
.	[2c	.	.
=67	=67	=67	=67
2.E	2c]	0r	0r
.	4B	.	.
4F	4A	.	.
4G	2B	.	.
4E	.	.	.
2F	2A	.	.
=68	=68	=68	=68
2.E	2.G	0r	2r
.	.	.	2b
4D	4F	.	.
2C	2E	.	2cc
2D	[2A	.	2a
=69	=69	=69	=69
1BB	2A]	2r	1b
.	2G#i	2B	.
2AA	1A	2c	2e
[2D	.	2A	[2f
=70	=70	=70	=70
2D]	0r	2B	2f]
2C	.	2.c	1e
1F	.	.	.
.	.	4B	.
.	.	[2A	2d
=71	=71	=71	=71
1E	2r	2A]	1.e
.	2B	2G#i	.
1r	2c	2A	.
.	2A	2c	2f
=72	=72	=72	=72
2r	2B	2d	1g
2E	1c	2e	.
2F	.	2c	1a
2D	2d	2f	.
=73	=73	=73	=73
2.E	2B	[0e	2g
.	2G	.	1b
4D	.	.	.
2C	2.c	.	.
2AA	.	.	[2a
.	4d	.	.
=74	=74	=74	=74
1E	1B	1e]	2a]
.	.	.	2g#i
1AA	1A	1r	[1a
=75	=75	=75	=75
1r	1r	0d	0a_
[1D	[1A	.	.
=76	=76	=76	=76
1D]	1A]	1f	1a]
1C	1c	1e	1r
=77	=77	=77	=77
0D	1B	1.d	1r
.	[1A	.	[1a
.	.	[2f	.
=78	=78	=78	=78
0AA	2A]	4f]	1a]
.	.	4e	.
.	1c	1e	.
.	.	.	1cc
.	4B	4d	.
.	4A	4c	.
=79	=79	=79	=79
1r	1G	1d	1b
[1F	1r	1c	1a
=80	=80	=80	=80
1F]	1c	0A	1a
1D	2d	.	1f
.	2d	.	.
=81	=81	=81	=81
1E	1B	1G	1g
[1F	[1A	1c	[1a
=82	=82	=82	=82
1F]	2A]	1d	1a]
.	2B	.	.
[1C	2c	[1e	1g
.	2G	.	.
=83	=83	=83	=83
1C]	4c	1e]	2r
.	4d	.	.
.	4e	.	2cc
.	4c	.	.
1r	2d	2r	2b
.	2d	2f	2a
=84	=84	=84	=84
0r	2A	2e	2cc
.	2B	2d	4b
.	.	.	4a
.	2c	2.e	2g
.	2A	.	2a
.	.	4d	.
=85	=85	=85	=85
2r	1A	4c	2e
.	.	4B	.
2F	.	2.c	2a
2E	1r	.	2g
.	.	4B	.
2D	.	2d	2f
=86	=86	=86	=86
2F	1r	2.A	2a
4E	.	.	4g
4D	.	4B	4f
2.C	2r	4c	2e
.	.	4d	.
.	2c	[2e	[2g
4D	.	.	.
=87	=87	=87	=87
2E	2B	2e]	4g]
.	.	.	4e
2.F	2A	2c	1a
.	2c	2f	.
4E	.	.	.
4C	4B	[2e	[2g
4D	4A	.	.
=88	=88	=88	=88
2E	2G	2e]	2g]
2F	2.A	2d	2f
[1C	.	[1e	1g
.	4G	.	.
.	2G	.	.
=89	=89	=89	=89
2C]	2E	2e]	2r
2D	1F	2d	1a
2AA	.	1c	.
[2C	[2E	.	2g
=90	=90	=90	=90
4C]	2E]	1r	2e
4AA	.	.	.
1D	2D	.	1f
.	2E	2r	.
2C	2G	2c	[2e
=91	=91	=91	=91
1D	1F	2B	2e]
.	.	2A	2d
1AA	[1El	2c	2e
.	.	4B	2cc
.	.	4A	.
=92	=92	=92	=92
2r	0E_	2G	2b
2.AA	.	2A	2a
.	.	2E	2cc
4BB	.	.	.
4C	.	2c	4b
4D	.	.	4a
=93	=93	=93	=93
2E	0E_	2B	2g
2AA	.	1e	2a
2C	.	.	2e
2D	.	4d	2a
.	.	4c	.
=94	=94	=94	=94
2E	0E_	2B	2g
1AA	.	2c	1cc
.	.	2A	.
2GG#i	.	2B	2b
=95	=95	=95	=95
1AA	0E_	1c	1a
[1El	.	[1Bl	[1g#Xl
=96	=96	=96	=96
00E]	00E]	00B]	00g#]
==	==	==	==
*-	*-	*-	*-
!!!system-decoration: [*]
!!!RDF**kern: i = editorial accidental
!!!RDF**kern: l = terminal long
!!!ENC: Benjamin Ory 
!!!END: 2024/5/30
!!!EED: Benjamin Ory
!!!EEV: 2024/05/30
!!!YEC: Copyright 2024 Benjamin Ory, All Rights Reserved
!!!ONB: Translated from MusicXML on 2024/05/30
